X:1
T:Rickett's -- Hornpipe
R:hornpipe
B:Cole's 1000 Fiddle Tunes
Z:Bob Puckette <bpuckette:msn.com> 2003-3-8
M:2/4
L:1/16
K:D
((3ABc)|dcdA FAdf|edcB .A2.g2|fgaf gfed|edcB Agfe|
dcdA FAdf|edcB .A2.g2|fafd egec|d2d2d2:|
|:.f.g|afaf .d2(ga)|bgbg .e2(fg)|afba gfed|edcB Agfe|
dcdA FAdf|edcB .A2.g2|fafd egec|d2d2d2:|
